X:1
T:Lesson 6 - Scherzando
M:C
K:A
L:1/8
vAA B2 ee d2|cdcB A2 z2|uAA B2 ee d2|AA B2 ee d2|cdcB A2 z2|veeee ef e2|
ef e2 edcB|Ac E2 Ac E2|AA B2 ee d2|cdcB A2 z2|veeee ef e2|
ef e2 edcB|Ac E2 Ac E2|AA B2 ee d2|cdcB A2 r2 z2|]
